imgs/nvd_logo.svg

<svg width="137" height="26" viewBox="0 0 137 26" fill="none" xmlns="http://www.w3.org/2000/svg">
<g id="Combined Shape 6">
<path id="Combined Shape" fill-rule="evenodd" clip-rule="evenodd" d="M14.5407 0V3.50139L15.2297 3.45799C24.0861 3.15415 29.8708 10.7791 29.8708 10.7791C29.8708 10.7791 23.2392 18.9104 16.3349 18.9104C15.7321 18.9104 15.1435 18.8525 14.555 18.7513V20.9215C15.0431 20.9794 15.5455 21.0228 16.0335 21.0228C22.4641 21.0228 27.1148 17.7095 31.622 13.803C31.9588 14.0772 32.7662 14.5252 33.6089 14.9929C34.6337 15.5616 35.7108 16.1593 36.0574 16.5086C31.7799 20.1258 21.8038 23.0339 16.1483 23.0339C15.6029 23.0339 15.0861 23.005 14.5694 22.9471V26H39V0H14.5407ZM14.5407 7.75515V5.41237L14.555 5.41124V5.41034C14.7799 5.39618 15.0048 5.3823 15.2297 5.3823C21.6029 5.17974 25.7799 10.9093 25.7799 10.9093C25.7799 10.9093 21.2727 17.2176 16.4354 17.2176C15.7895 17.2176 15.1579 17.1163 14.555 16.9137V9.79521C16.893 10.0813 17.4751 11.0727 18.7691 13.2768C18.8495 13.4137 18.9327 13.5553 19.0191 13.7017L22.3349 10.8948C22.3349 10.8948 19.9091 7.69727 15.8325 7.69727C15.4019 7.6828 14.9713 7.71174 14.5407 7.75515ZM14.5407 7.75515L14.5407 9.78075H14.5263C12.0431 9.47691 10.0909 11.8208 10.0909 11.8208C10.0909 11.8208 11.1962 15.7707 14.5407 16.9137V18.7657C8.59809 17.695 6.94737 11.4591 6.94737 11.4591C6.94737 11.4591 9.80383 8.27602 14.5407 7.75515ZM14.555 5.41034L14.5407 5.41124L14.5407 5.41124V5.41237C7.5024 5.96816 3.99043 11.1987 3.99043 11.1987C3.99043 11.1987 6.67464 19.9377 14.5407 20.9215V22.9471C3.81818 21.9343 0 10.7935 0 10.7935C0 10.7935 6.74641 4.13801 14.555 3.50139V5.41034ZM46 5V21.9856H50.8518V8.79695L54.635 8.81134C55.8769 8.81134 56.7433 9.11337 57.3353 9.74619C58.1006 10.5516 58.4038 11.8604 58.4038 14.2335V21.9856H63.1112V12.6083C63.1112 5.90609 58.8226 5 54.635 5H46ZM83.8324 5.02876V22H88.6409V5.02876H83.8324ZM91.5866 22V5.02876H98.3301C102.171 5.02876 104.741 5.489 106.503 7.8621C107.499 9.18528 108.063 11.3139 108.063 13.7014C108.063 16.3046 107.398 18.692 106.359 19.7707C104.9 21.3096 103.543 22 99.3842 22H91.5866ZM96.3518 8.71066H98.4167C101.42 8.71066 103.355 10.0482 103.355 13.5288C103.355 17.0093 101.42 18.3613 98.4167 18.3613H96.3518V8.71066ZM72.887 18.4763L76.9013 5.02876H81.8109L76.2659 22H69.3348L63.8477 5.02876H69.046L72.887 18.4763ZM110.315 22H115.124V5.02876H110.315V22ZM117.087 21.9856L123.802 5.02876H130.228L137 21.9712H131.845L130.834 18.9797H122.892L121.824 21.9856H117.087ZM126.921 8.12098L129.838 16.0601H123.917L126.921 8.12098Z" fill="white"/>
</g>
</svg>

<svg width="137" height="26" fill="none" xmlns="http://www.w3.org/2000/svg"><path fill-rule="evenodd" clip-rule="evenodd" d="M14.54 0v3.501l.69-.043c8.856-.304 14.64 7.321 14.64 7.321s-6.63 8.131-13.535 8.131c-.603 0-1.192-.058-1.78-.159v2.17c.488.058.99.102 1.479.102 6.43 0 11.08-3.314 15.588-7.22.337.274 1.144.722 1.987 1.19 1.025.569 2.102 1.166 2.448 1.516-4.277 3.617-14.253 6.525-19.909 6.525-.545 0-1.062-.029-1.579-.087V26H39V0H14.54Zm0 7.755V5.412h.015V5.41c.225-.014.45-.028.675-.028 6.373-.202 10.55 5.527 10.55 5.527s-4.507 6.309-9.345 6.309a5.885 5.885 0 0 1-1.88-.304V9.795c2.338.286 2.92 1.278 4.214 3.482l.25.425 3.316-2.807s-2.426-3.198-6.503-3.198a9.65 9.65 0 0 0-1.291.058Zm0 0v2.026h-.014c-2.483-.304-4.435 2.04-4.435 2.04s1.105 3.95 4.45 5.093v1.852c-5.943-1.071-7.594-7.307-7.594-7.307s2.857-3.183 7.594-3.704Zm.015-2.345-.014.001v.001C7.502 5.968 3.99 11.2 3.99 11.2s2.684 8.739 10.55 9.723v2.025C3.818 21.934 0 10.794 0 10.794S6.746 4.138 14.555 3.5v1.91ZM46 5v16.986h4.852V8.796l3.783.015c1.242 0 2.108.302 2.7.935.766.806 1.069 2.114 1.069 4.487v7.753h4.707v-9.378C63.111 5.906 58.823 5 54.635 5H46Zm37.832.029V22h4.809V5.029h-4.809ZM91.587 22V5.029h6.743c3.841 0 6.411.46 8.173 2.833.996 1.323 1.56 3.452 1.56 5.84 0 2.603-.665 4.99-1.704 6.069C104.9 21.31 103.543 22 99.384 22h-7.797Zm4.765-13.29h2.065c3.003 0 4.938 1.338 4.938 4.819 0 3.48-1.935 4.832-4.938 4.832h-2.065v-9.65Zm-23.465 9.766L76.901 5.03h4.91L76.266 22h-6.931L63.848 5.029h5.198l3.841 13.447ZM110.315 22h4.809V5.029h-4.809V22Zm6.772-.014 6.715-16.957h6.426L137 21.97h-5.155l-1.011-2.991h-7.942l-1.068 3.006h-4.737Zm9.834-13.865 2.917 7.94h-5.921l3.004-7.94Z" fill="#fff"/></svg>
